X:1
T:Bill Bailey, Won't You Please Come Home?
T:Bill Bailey, Won't You Please Come Home?
T:Hughie Cannon
T:666
C:Hughie Cannon
Z:659
L:1/8
M:4/4
K:Eb
V:1 treble nm="Piano" snm="Pno."
V:1
"Ab""_Intro" !stemless!=B2 !stemless!B2 !stemless!B2 !stemless!B2 | %1
w: |
 !stemless!=B2 !stemless!B2"Bb7" !stemless!B2 !stemless!B2 | %2
w: |
"Eb" !stemless!=B2 !stemless!B2 !stemless!B2 !stemless!B2 | %3
w: |
"C7" !stemless!=B2 !stemless!B2 !stemless!B2 !stemless!B2 | %4
w: |
"F7" !stemless!=B2 !stemless!B2 !stemless!B2 !stemless!B2 | %5
w: |
"Bb9" !stemless!=B2 !stemless!B2"Bb7" !stemless!B2 !stemless!B2 | %6
w: |
"Eb" !stemless!=B2 !stemless!B2"F7" !stemless!B2 !stemless!B2 | %7
w: |
"Bb7" !stemless!=B2 !stemless!B2 !stemless!B2 !stemless!B2 |:"Eb" B,2 C4 E2 | G3 _G =G2 B2 | %10
w: |Won't you come|home, Bill Bai- ley,|
 B,2 C4"Adim" E2 |"Eb" G8 | B,2 C4 E2 | G4"Edim" B4 |"Bb7/F" B2 D6- | D8 |"Bb7" B,2 D4 F2 | %17
w: won't you come|home?|She moans the|whole day|long *||I'll do the|
 A2 G2 A2 B2 | B,2 D4 F2 | A8 | B,2 D4 F2 | B4"Gbdim" c4 |"Eb/G" c2"Eb" G6- |"Bb7" G8 | %24
w: cook- ing, dar- ling|I'll pay the|rent,|I know I|done you|wrong.~ *||
"Eb" B,2 C4 E2 | G3 _G =G2 B2 | B,2 C4"Adim" E2 |"Eb" G6 C2 |"Eb7" B,2 B,2 E2 G2 | B4"Eb7" _d4 | %30
w: 'mem- ber that|rain- y eve that|I drove you|out, with|noth- in' but a|fine tooth|
"Ab""C7/G" c8- |"Fm" c6"Eb+7" E2 |"Ab" E2 E4 E2 |"Ab6" F4 E4 |"Eb/Bb" B2 B4 A2 |"C7""C7/G" G6 G2 | %36
w: comb?~~~~~|* I|know I'm to|blame, well,|ain't that a|shame? Bill|
"F7" G2 F2 =E2 F2 |"Bb9" A4"Bb13" G4 |1"Eb" E8- |"F7" E2 z2"Bb7" z4 :|2"Eb" E8- | %41
w: Bai- ley, won't you|plese come|home?~||home?|
"C7" E2 z2 z2 G2 ||"F7" G2 F2 =E2 F2 |"Bb9" A4"Bb13" G4 |"Eb" E8- | E2 !fermata!z2"Eb" E4 |] %46
w: * Bill|Bai- ley won't you|please come|home?||

